X: 30
T:Aldriges Allemande. WM.030
T:Aldridge's Allemande. WM.030
M:2/4
L:1/16
Q:100
S:Wm.Mittell's MS,New Romney,Kent,1799
R:Allemande
O:England
A:Kent
Z:vmp.Chris Partington
K:D
f2|egec d2f2|egec d2A2|B2A2B2c2|dcde d2f2|!
egec d2f2|egec d2A2|B2A2B2c2|d6:|!
|:gc|fafd fafd|gbge gbge|fafd fafd|edcB A2g2|!
fafd fafd|gbge gbge|fafd egec|d6:||
